X: 11646
T: Eileen O'Brien's
R: reel
M: 4/4
K: Cmajor
c2Gc AGED|CDEG cGBd|cG~G2 AGEG|cAGE DCA,C|
G,A,CD EG~G2|AG^FA GABG|cBcd cAGA|cAGE DdcB:|
|:c2ec GAcd|egde cBGA|_B2dB fBdB|c_BGA BG~G2|
cdec GAcd|egde cBG^f|g=fdc Bcdc|BGFD CDEG:|
c2Bc AE~E2|CDEG cede|cG~G2 AGEG|GAGE EDCA,|
G,A,CD ~E3G|AGFA GcAB|(3cde dB cAdc|AGED CDEG|
~c3d AGED|~C3A, G,CEG|BcBc AE~E2|cAGE ~D2CA,|
G,A,CD ~E3G|AGFA GcAB|(3cde dB cAdc|AGED CDEG||
ceAc GAcd|egdB cBGA|_B2dB FBdB|c_BcB BGFG|
~c3d ec~c2|ecdB cBGB|gedB cAGE|FDGE CDEG|
ceAc GAcd|egdB cBGA|~_B3d ~f3a|gfdc _BGFG|
~c3d ec~c2|ecdB cBGB|gedB cAGE|~F3D (3EFG AB||

